packages/core/src/svgs/vlxpad.svg

<svg width="24" height="24" viewBox="0 0 24 24" fill="none" xmlns="http://www.w3.org/2000/svg">
<g clip-path="url(#clip0_31_20484)">
<path d="M0 0H24V24H0V0Z" fill="url(#paint0_linear_31_20484)"/>
<path d="M6.62993 8.57129H4.28564L8.57136 15.857L11.7856 10.7141L10.7142 8.57129L8.74279 12.0856L6.62993 8.57129Z" fill="url(#paint1_linear_31_20484)"/>
<path d="M19.7144 8.57129H10.7144L11.7858 10.7141H15.6429L15.2144 11.5713H12.0001L12.8572 13.7141H16.2858L19.7144 8.57129Z" fill="url(#paint2_linear_31_20484)"/>
<path d="M12.8572 13.7141L12.0001 11.5713L9.21436 16.4999C9.61741 17.2639 9.97517 18.051 10.2858 18.857C10.2858 18.857 11.9186 15.5141 12.8572 13.7141Z" fill="url(#paint3_linear_31_20484)"/>
</g>
<defs>
<linearGradient id="paint0_linear_31_20484" x1="4.46571" y1="4.16143" x2="29.2071" y2="32.58" gradientUnits="userSpaceOnUse">
<stop stop-color="#1A1E21"/>
<stop offset="1" stop-color="#06060A"/>
</linearGradient>
<linearGradient id="paint1_linear_31_20484" x1="5.45564" y1="10.9156" x2="11.7856" y2="10.9156" gradientUnits="userSpaceOnUse">
<stop stop-color="#0753F7"/>
<stop offset="1" stop-color="#02CBC5"/>
</linearGradient>
<linearGradient id="paint2_linear_31_20484" x1="11.7858" y1="9.27415" x2="18.8186" y2="9.27415" gradientUnits="userSpaceOnUse">
<stop stop-color="#02A7A1"/>
<stop offset="1" stop-color="#01E8BA"/>
</linearGradient>
<linearGradient id="paint3_linear_31_20484" x1="12.7244" y1="12.3213" x2="9.67721" y2="17.7127" gradientUnits="userSpaceOnUse">
<stop stop-color="#01DBC0"/>
<stop offset="1" stop-color="#03ACD3"/>
</linearGradient>
<clipPath id="clip0_31_20484">
<rect width="24" height="24" fill="white"/>
</clipPath>
</defs>
</svg>

<svg xmlns="http://www.w3.org/2000/svg" width="24" height="24" fill="none" viewBox="0 0 24 24"><g clip-path="url(#a)"><path fill="url(#b)" d="M0 0h24v24H0z"/><path fill="url(#c)" d="M6.63 8.571H4.286l4.285 7.286 3.215-5.143-1.072-2.143-1.971 3.515z"/><path fill="url(#d)" d="M19.714 8.571h-9l1.072 2.143h3.857l-.429.857H12l.857 2.143h3.429z"/><path fill="url(#e)" d="M12.857 13.714 12 11.571 9.214 16.5q.605 1.147 1.072 2.357s1.633-3.343 2.571-5.143"/></g><defs><linearGradient id="b" x1="4.466" x2="29.207" y1="4.161" y2="32.58" gradientUnits="userSpaceOnUse"><stop stop-color="#1A1E21"/><stop offset="1" stop-color="#06060A"/></linearGradient><linearGradient id="c" x1="5.456" x2="11.786" y1="10.916" y2="10.916" gradientUnits="userSpaceOnUse"><stop stop-color="#0753F7"/><stop offset="1" stop-color="#02CBC5"/></linearGradient><linearGradient id="d" x1="11.786" x2="18.819" y1="9.274" y2="9.274" gradientUnits="userSpaceOnUse"><stop stop-color="#02A7A1"/><stop offset="1" stop-color="#01E8BA"/></linearGradient><linearGradient id="e" x1="12.724" x2="9.677" y1="12.321" y2="17.713" gradientUnits="userSpaceOnUse"><stop stop-color="#01DBC0"/><stop offset="1" stop-color="#03ACD3"/></linearGradient><clipPath id="a"><path fill="#fff" d="M0 0h24v24H0z"/></clipPath></defs></svg>
